; generated by SuperSlicer 2.5.59.13 on 2025-10-07 at 04:16:29 UTC

; 

; external perimeters extrusion width = 0.59mm
; perimeters extrusion width = 0.59mm
; infill extrusion width = 0.60mm
; solid infill extrusion width = 0.60mm
; top infill extrusion width = 0.60mm
; first layer extrusion width = 0.61mm

; object:{"name":"dummycube","id":"dummycube.stl id:0 copy 0","object_center":[128.000000,128.000000,0.000000],"boundingbox_center":[128.000000,128.000000,37.732586],"boundingbox_size":[75.465172,75.465172,75.465172]}
; Total objects to print: 1
M486 T1
; plater:{"center":[128.000000,128.000000,0.000000],"boundingbox_center":[128.000000,128.000000,37.732586],"boundingbox_size":[75.465172,75.465172,75.465172]}

M107
M140 S60 ; set bed temperature
M104 S210 ; set temperature
;TYPE:Custom
G28 ; home all axes
G1 Z5 F5000 ; lift nozzle

M107
G21 ; set units to millimeters
G90 ; use absolute coordinates
M82 ; use absolute distances for extrusion
G92 E0
; Filament gcode
M109 S210 ; set temperature and wait for it to be reached
M190 S60 ; set bed temperature and wait for it to be reached
;LAYER_CHANGE
;Z:0.3
;HEIGHT:0.3
G1 Z0.3 F7800
G1 X85.616 Y86.187
;TYPE:Skirt
;WIDTH:0.44
M107
G1 F1800
G1 X84.476 Y88.087 E0.10381
G1 X84.08 Y90.267 E0.20763
G1 X84.08 Y165.733 E3.74312
G1 X84.81 Y168.648 E3.88393
G1 X86.187 Y170.384 E3.98775
G1 X88.087 Y171.524 E4.09156
G1 X90.267 Y171.92 E4.19538
G1 X165.733 Y171.92 E7.73086
G1 X168.648 Y171.19 E7.87168
G1 X170.384 Y169.813 E7.9755
G1 X171.524 Y167.913 E8.0793
G1 X171.92 Y165.733 E8.18312
G1 X171.92 Y90.267 E11.71862
G1 X171.19 Y87.352 E11.85942
G1 X169.813 Y85.616 E11.96324
G1 X167.913 Y84.476 E12.06706
G1 X165.733 Y84.08 E12.17087
G1 X90.267 Y84.08 E15.70636
G1 X87.352 Y84.81 E15.84717
G1 X85.616 Y86.187 E15.95099
M107
G92 E0
; printing object dummycube.stl id:0 copy 0
M486 S0
G1 X91.133 Y91.133 F7800
;TYPE:Internal perimeter
;WIDTH:0.611504
M107
G1 F1800
G1 X164.867 Y91.133 E5.03161
G1 X164.867 Y164.867 E10.06321
G1 X91.133 Y164.867 E15.09483
G1 X91.133 Y91.133 E20.12643
M107
G92 E0
G1 X90.573 Y90.573 F7800
;TYPE:External perimeter
M107
G1 F1800
G1 X165.427 Y90.573 E5.10804
G1 X165.427 Y165.427 E10.21607
G1 X90.573 Y165.427 E15.32411
G1 X90.573 Y90.573 E20.43215
M107
;WIPE_START
G1 X90.92 Y90.773 F7800
;WIPE_END
G92 E0
G1 X163.567 Y91.301
;TYPE:Solid infill
;WIDTH:0.619302
M107
G1 F1800
G1 X164.458 Y92.192 E0.08732
G1 X164.458 Y92.984 E0.14218
G1 X163.016 Y91.542 E0.28349
G1 X162.224 Y91.542 E0.33836
G1 X164.458 Y93.776 E0.55727
G1 X164.458 Y94.568 E0.61213
G1 X161.432 Y91.542 E0.90864
G1 X160.64 Y91.542 E0.96349
G1 X164.458 Y95.36 E1.33759
G1 X164.458 Y96.152 E1.39245
G1 X159.848 Y91.542 E1.84413
G1 X159.056 Y91.542 E1.899
G1 X164.458 Y96.944 E2.42827
G1 X164.458 Y97.736 E2.48314
G1 X158.264 Y91.542 E3.09
G1 X157.472 Y91.542 E3.14486
G1 X164.458 Y98.528 E3.82932
G1 X164.458 Y99.32 E3.88419
G1 X156.68 Y91.542 E4.64623
G1 X155.888 Y91.542 E4.7011
G1 X164.458 Y100.112 E5.54074
G1 X164.458 Y100.904 E5.5956
G1 X155.096 Y91.542 E6.51283
G1 X154.304 Y91.542 E6.5677
G1 X164.458 Y101.696 E7.56252
G1 X164.458 Y102.488 E7.61739
G1 X153.512 Y91.542 E8.6898
G1 X152.72 Y91.542 E8.74466
G1 X164.458 Y103.28 E9.89467
G1 X164.458 Y104.072 E9.94953
G1 X151.928 Y91.542 E11.17713
G1 X151.136 Y91.542 E11.232
G1 X164.458 Y104.864 E12.53718
G1 X164.458 Y105.656 E12.59205
G1 X150.344 Y91.542 E13.97483
G1 X149.552 Y91.542 E14.02969
G1 X164.458 Y106.448 E15.49006
G1 X164.458 Y107.24 E15.54493
G1 X148.76 Y91.542 E17.08289
G1 X147.968 Y91.542 E17.13776
G1 X164.458 Y108.032 E18.75331
G1 X164.458 Y108.824 E18.80817
G1 X147.176 Y91.542 E20.50133
G1 X146.385 Y91.542 E20.55618
G1 X164.458 Y109.615 E22.32692
G1 X164.458 Y110.407 E22.38179
G1 X145.593 Y91.542 E24.23012
G1 X144.801 Y91.542 E24.28498
G1 X164.458 Y111.199 E26.2109
G1 X164.458 Y111.991 E26.26577
G1 X144.009 Y91.542 E28.26928
G1 X143.217 Y91.542 E28.32414
G1 X164.458 Y112.783 E30.40525
G1 X164.458 Y113.575 E30.46011
G1 X142.425 Y91.542 E32.61881
G1 X141.633 Y91.542 E32.67367
G1 X164.458 Y114.367 E34.90995
G1 X164.458 Y115.159 E34.96483
G1 X140.841 Y91.542 E37.2787
G1 X140.049 Y91.542 E37.33356
G1 X164.458 Y115.951 E39.72504
G1 X164.458 Y116.743 E39.77989
G1 X139.257 Y91.542 E42.24896
G1 X138.465 Y91.542 E42.30383
G1 X164.458 Y117.535 E44.85048
G1 X164.458 Y118.327 E44.90534
G1 X137.673 Y91.542 E47.52958
G1 X136.881 Y91.542 E47.58446
G1 X164.458 Y119.119 E50.28628
G1 X164.458 Y119.911 E50.34115
G1 X136.089 Y91.542 E53.12058
G1 X135.297 Y91.542 E53.17544
G1 X164.458 Y120.703 E56.03246
G1 X164.458 Y121.495 E56.08733
G1 X134.505 Y91.542 E59.02194
G1 X133.713 Y91.542 E59.0768
G1 X164.458 Y122.287 E62.089
G1 X164.458 Y123.079 E62.14387
G1 X132.921 Y91.542 E65.23366
G1 X132.129 Y91.542 E65.28852
G1 X164.458 Y123.871 E68.45591
G1 X164.458 Y124.663 E68.51077
G1 X131.337 Y91.542 E71.75575
G1 X130.545 Y91.542 E71.81062
G1 X164.458 Y125.455 E75.13318
G1 X164.458 Y126.247 E75.18805
G1 X129.753 Y91.542 E78.5882
G1 X128.961 Y91.542 E78.64307
G1 X164.458 Y127.039 E82.12083
G1 X164.458 Y127.831 E82.17568
G1 X128.169 Y91.542 E85.73103
G1 X127.377 Y91.542 E85.78589
G1 X164.458 Y128.623 E89.41883
G1 X164.458 Y129.414 E89.47369
G1 X126.586 Y91.542 E93.18422
G1 X125.794 Y91.542 E93.23908
G1 X164.458 Y130.206 E97.0272
G1 X164.458 Y130.998 E97.08206
G1 X125.002 Y91.542 E100.94777
G1 X124.21 Y91.542 E101.00264
G1 X164.458 Y131.79 E104.94593
G1 X164.458 Y132.582 E105.0008
G1 X123.418 Y91.542 E109.02169
G1 X122.626 Y91.542 E109.07656
G1 X164.458 Y133.374 E113.17503
G1 X164.458 Y134.166 E113.22991
G1 X121.834 Y91.542 E117.40598
G1 X121.042 Y91.542 E117.46084
G1 X164.458 Y134.958 E121.7145
G1 X164.458 Y135.75 E121.76938
G1 X120.25 Y91.542 E126.10063
G1 X119.458 Y91.542 E126.15549
G1 X164.458 Y136.542 E130.56434
G1 X164.458 Y137.334 E130.61921
G1 X118.666 Y91.542 E135.10565
G1 X117.874 Y91.542 E135.16051
G1 X164.458 Y138.126 E139.72455
G1 X164.458 Y138.918 E139.77941
G1 X117.082 Y91.542 E144.42103
G1 X116.29 Y91.542 E144.4759
G1 X164.458 Y139.71 E149.19511
G1 X164.458 Y140.502 E149.24998
G1 X115.498 Y91.542 E154.04678
G1 X114.706 Y91.542 E154.10165
G1 X164.458 Y141.294 E158.97604
G1 X164.458 Y142.086 E159.03091
G1 X113.914 Y91.542 E163.9829
G1 X113.122 Y91.542 E164.03777
G1 X164.458 Y142.878 E169.06734
G1 X164.458 Y143.67 E169.12221
G1 X112.33 Y91.542 E174.22938
G1 X111.538 Y91.542 E174.28425
G1 X164.458 Y144.462 E179.46901
G1 X164.458 Y145.254 E179.52388
G1 X110.746 Y91.542 E184.78623
G1 X109.954 Y91.542 E184.84109
G1 X164.458 Y146.046 E190.18105
G1 X164.458 Y146.838 E190.2359
G1 X109.162 Y91.542 E195.65345
G1 X108.37 Y91.542 E195.70831
G1 X164.458 Y147.63 E201.20344
G1 X164.458 Y148.421 E201.25831
G1 X107.579 Y91.542 E206.83102
G1 X106.787 Y91.542 E206.88589
G1 X164.458 Y149.213 E212.53621
G1 X164.458 Y150.005 E212.59107
G1 X105.995 Y91.542 E218.31897
G1 X105.203 Y91.542 E218.37384
G1 X164.458 Y150.797 E224.17933
G1 X164.458 Y151.589 E224.2342
G1 X104.411 Y91.542 E230.11728
G1 X103.619 Y91.542 E230.17215
G1 X164.458 Y152.381 E236.13283
G1 X164.458 Y153.173 E236.1877
G1 X102.827 Y91.542 E242.22596
G1 X102.035 Y91.542 E242.28083
G1 X164.458 Y153.965 E248.39669
G1 X164.458 Y154.757 E248.45156
G1 X101.243 Y91.542 E254.64501
G1 X100.451 Y91.542 E254.69987
G1 X164.458 Y155.549 E260.97092
G1 X164.458 Y156.341 E261.02579
G1 X99.659 Y91.542 E267.37442
G1 X98.867 Y91.542 E267.42928
G1 X164.458 Y157.133 E273.85551
G1 X164.458 Y157.925 E273.91038
G1 X98.075 Y91.542 E280.4142
G1 X97.283 Y91.542 E280.46906
G1 X164.458 Y158.717 E287.05047
G1 X164.458 Y159.509 E287.10534
G1 X96.491 Y91.542 E293.76434
G1 X95.699 Y91.542 E293.81921
G1 X164.458 Y160.301 E300.5558
G1 X164.458 Y161.093 E300.61066
G1 X94.907 Y91.542 E307.42485
G1 X94.115 Y91.542 E307.47971
G1 X164.458 Y161.885 E314.37149
G1 X164.458 Y162.677 E314.42636
G1 X93.323 Y91.542 E321.39573
G1 X92.531 Y91.542 E321.45058
G1 X164.458 Y163.469 E328.49755
G1 X164.458 Y164.261 E328.55242
G1 X91.739 Y91.542 E335.67696
G1 X91.542 Y91.542 E335.69064
G1 X91.542 Y92.137 E335.73183
G1 X163.863 Y164.458 E342.81747
G1 X163.072 Y164.458 E342.87233
G1 X91.542 Y92.928 E349.88037
G1 X91.542 Y93.72 E349.93524
G1 X162.28 Y164.458 E356.86569
G1 X161.488 Y164.458 E356.92055
G1 X91.542 Y94.512 E363.77341
G1 X91.542 Y95.304 E363.82828
G1 X160.696 Y164.458 E370.60355
G1 X159.904 Y164.458 E370.65841
G1 X91.542 Y96.096 E377.35609
G1 X91.542 Y96.888 E377.41095
G1 X159.112 Y164.458 E384.03104
G1 X158.32 Y164.458 E384.0859
G1 X91.542 Y97.68 E390.6284
G1 X91.542 Y98.472 E390.68326
G1 X157.528 Y164.458 E397.14817
G1 X156.736 Y164.458 E397.20302
G1 X91.542 Y99.264 E403.59034
G1 X91.542 Y100.056 E403.64521
G1 X155.944 Y164.458 E409.95492
G1 X155.152 Y164.458 E410.00979
G1 X91.542 Y100.848 E416.24192
G1 X91.542 Y101.64 E416.29678
G1 X154.36 Y164.458 E422.45131
G1 X153.568 Y164.458 E422.50619
G1 X91.542 Y102.432 E428.58312
G1 X91.542 Y103.224 E428.638
G1 X152.776 Y164.458 E434.63734
G1 X151.984 Y164.458 E434.69221
G1 X91.542 Y104.016 E440.61397
G1 X91.542 Y104.808 E440.66884
G1 X151.192 Y164.458 E446.51301
G1 X150.4 Y164.458 E446.56787
G1 X91.542 Y105.6 E452.33445
G1 X91.542 Y106.392 E452.38931
G1 X149.608 Y164.458 E458.0783
G1 X148.816 Y164.458 E458.13317
G1 X91.542 Y107.184 E463.74456
G1 X91.542 Y107.976 E463.79943
G1 X148.024 Y164.458 E469.33323
G1 X147.232 Y164.458 E469.3881
G1 X91.542 Y108.768 E474.84431
G1 X91.542 Y109.56 E474.89917
G1 X146.44 Y164.458 E480.27779
G1 X145.648 Y164.458 E480.33266
G1 X91.542 Y110.352 E485.63369
G1 X91.542 Y111.144 E485.68856
G1 X144.856 Y164.458 E490.91199
G1 X144.064 Y164.458 E490.96686
G1 X91.542 Y111.936 E496.1127
G1 X91.542 Y112.727 E496.16757
G1 X143.273 Y164.458 E501.23582
G1 X142.481 Y164.458 E501.29069
G1 X91.542 Y113.519 E506.28135
G1 X91.542 Y114.311 E506.33622
G1 X141.689 Y164.458 E511.24929
G1 X140.897 Y164.458 E511.30415
G1 X91.542 Y115.103 E516.13964
G1 X91.542 Y115.895 E516.1945
G1 X140.105 Y164.458 E520.95238
G1 X139.313 Y164.458 E521.00726
G1 X91.542 Y116.687 E525.68755
G1 X91.542 Y117.479 E525.74241
G1 X138.521 Y164.458 E530.34512
G1 X137.729 Y164.458 E530.39999
G1 X91.542 Y118.271 E534.9251
G1 X91.542 Y119.063 E534.97997
G1 X136.937 Y164.458 E539.42749
G1 X136.145 Y164.458 E539.48235
G1 X91.542 Y119.855 E543.85228
G1 X91.542 Y120.647 E543.90715
G1 X135.353 Y164.458 E548.19949
G1 X134.561 Y164.458 E548.25436
G1 X91.542 Y121.439 E552.4691
G1 X91.542 Y122.231 E552.52397
G1 X133.769 Y164.458 E556.66112
G1 X132.977 Y164.458 E556.71599
G1 X91.542 Y123.023 E560.77556
G1 X91.542 Y123.815 E560.83042
G1 X132.185 Y164.458 E564.81239
G1 X131.393 Y164.458 E564.86726
G1 X91.542 Y124.607 E568.77164
G1 X91.542 Y125.399 E568.82651
G1 X130.601 Y164.458 E572.65329
G1 X129.809 Y164.458 E572.70817
G1 X91.542 Y126.191 E576.45736
G1 X91.542 Y126.983 E576.51222
G1 X129.017 Y164.458 E580.18384
G1 X128.225 Y164.458 E580.2387
G1 X91.542 Y127.775 E583.83271
G1 X91.542 Y128.567 E583.88758
G1 X127.433 Y164.458 E587.40401
G1 X126.641 Y164.458 E587.45887
G1 X91.542 Y129.359 E590.8977
G1 X91.542 Y130.151 E590.95257
G1 X125.849 Y164.458 E594.31381
G1 X125.057 Y164.458 E594.36867
G1 X91.542 Y130.943 E597.65233
G1 X91.542 Y131.735 E597.70719
G1 X124.265 Y164.458 E600.91324
G1 X123.474 Y164.458 E600.96812
G1 X91.542 Y132.526 E604.09658
G1 X91.542 Y133.318 E604.15144
G1 X122.682 Y164.458 E607.20232
G1 X121.89 Y164.458 E607.25719
G1 X91.542 Y134.11 E610.23047
G1 X91.542 Y134.902 E610.28534
G1 X121.098 Y164.458 E613.18102
G1 X120.306 Y164.458 E613.2359
G1 X91.542 Y135.694 E616.05399
G1 X91.542 Y136.486 E616.10886
G1 X119.514 Y164.458 E618.84937
G1 X118.722 Y164.458 E618.90423
G1 X91.542 Y137.278 E621.56715
G1 X91.542 Y138.07 E621.62202
G1 X117.93 Y164.458 E624.20734
G1 X117.138 Y164.458 E624.26221
G1 X91.542 Y138.862 E626.76995
G1 X91.542 Y139.654 E626.82481
G1 X116.346 Y164.458 E629.25495
G1 X115.554 Y164.458 E629.30981
G1 X91.542 Y140.446 E631.66237
G1 X91.542 Y141.238 E631.71724
G1 X114.762 Y164.458 E633.99219
G1 X113.97 Y164.458 E634.04706
G1 X91.542 Y142.03 E636.24443
G1 X91.542 Y142.822 E636.29929
G1 X113.178 Y164.458 E638.41907
G1 X112.386 Y164.458 E638.47394
G1 X91.542 Y143.614 E640.51612
G1 X91.542 Y144.406 E640.57099
G1 X111.594 Y164.458 E642.53558
G1 X110.802 Y164.458 E642.59045
G1 X91.542 Y145.198 E644.47745
G1 X91.542 Y145.99 E644.53231
G1 X110.01 Y164.458 E646.34173
G1 X109.218 Y164.458 E646.39659
G1 X91.542 Y146.782 E648.12841
G1 X91.542 Y147.574 E648.18328
G1 X108.426 Y164.458 E649.8375
G1 X107.634 Y164.458 E649.89237
G1 X91.542 Y148.366 E651.46901
G1 X91.542 Y149.158 E651.52387
G1 X106.842 Y164.458 E653.02291
G1 X106.05 Y164.458 E653.07779
G1 X91.542 Y149.95 E654.49923
G1 X91.542 Y150.742 E654.5541
G1 X105.258 Y164.458 E655.89797
G1 X104.466 Y164.458 E655.95282
G1 X91.542 Y151.534 E657.2191
G1 X91.542 Y152.325 E657.27397
G1 X103.675 Y164.458 E658.46264
G1 X102.883 Y164.458 E658.51751
G1 X91.542 Y153.117 E659.6286
G1 X91.542 Y153.909 E659.68346
G1 X102.091 Y164.458 E660.71696
G1 X101.299 Y164.458 E660.77182
G1 X91.542 Y154.701 E661.72773
G1 X91.542 Y155.493 E661.78259
G1 X100.507 Y164.458 E662.6609
G1 X99.715 Y164.458 E662.71578
G1 X91.542 Y156.285 E663.51649
G1 X91.542 Y157.077 E663.57136
G1 X98.923 Y164.458 E664.29448
G1 X98.131 Y164.458 E664.34936
G1 X91.542 Y157.869 E664.99489
G1 X91.542 Y158.661 E665.04976
G1 X97.339 Y164.458 E665.6177
G1 X96.547 Y164.458 E665.67257
G1 X91.542 Y159.453 E666.16293
G1 X91.542 Y160.245 E666.21779
G1 X95.755 Y164.458 E666.63055
G1 X94.963 Y164.458 E666.68542
G1 X91.542 Y161.037 E667.02059
G1 X91.542 Y161.829 E667.07546
G1 X94.171 Y164.458 E667.33304
G1 X93.379 Y164.458 E667.3879
G1 X91.542 Y162.621 E667.56789
G1 X91.542 Y163.413 E667.62276
G1 X92.587 Y164.458 E667.72516
G1 X91.795 Y164.458 E667.78002
G1 X91.301 Y163.964 E667.82842
M107
;LAYER_CHANGE
;Z:0.5
;HEIGHT:0.2
; stop printing object dummycube.stl id:0 copy 0
M486 S-1
G1 Z0.5 F7800
G92 E0
; printing object dummycube.stl id:0 copy 0
M486 S0
G1 X90.895 Y165.105
;TYPE:Internal perimeter
;WIDTH:0.454336
M107
G1 F3600
G1 X90.895 Y90.895 E2.53871
G1 X165.105 Y90.895 E5.07741
G1 X165.105 Y165.105 E7.61612
G1 X90.895 Y165.105 E10.15482
M107
G92 E0
G1 X90.485 Y165.515 F7800
;TYPE:External perimeter
;WIDTH:0.434336
M107
G1 F1800
G1 X90.485 Y90.485 E2.44198
G1 X165.515 Y90.485 E4.88396
G1 X165.515 Y165.515 E7.32595
G1 X90.485 Y165.515 E9.76792
M107
;WIPE_START
G1 X90.685 Y165.169 F7800
;WIPE_END
G92 E0
G1 X164.125 Y164.974
;TYPE:Solid infill
;WIDTH:0.460245
M107
G1 F1800
G1 X164.794 Y164.306 E0.03282
G1 X164.794 Y163.712 E0.05345
G1 X163.712 Y164.794 E0.10656
G1 X163.118 Y164.794 E0.12719
G1 X164.794 Y163.118 E0.20948
G1 X164.794 Y162.524 E0.23009
G1 X162.524 Y164.794 E0.34155
G1 X161.93 Y164.794 E0.36217
G1 X164.794 Y161.93 E0.50279
G1 X164.794 Y161.336 E0.52342
G1 X161.336 Y164.794 E0.6932
G1 X160.742 Y164.794 E0.71382
G1 X164.794 Y160.742 E0.91277
G1 X164.794 Y160.148 E0.93339
G1 X160.148 Y164.794 E1.16151
G1 X159.554 Y164.794 E1.18213
G1 X164.794 Y159.554 E1.43941
G1 X164.794 Y158.96 E1.46004
G1 X158.96 Y164.794 E1.74648
G1 X158.366 Y164.794 E1.76711
G1 X164.794 Y158.366 E2.08272
G1 X164.794 Y157.772 E2.10334
G1 X157.772 Y164.794 E2.44812
G1 X157.178 Y164.794 E2.46875
G1 X164.794 Y157.178 E2.84269
G1 X164.794 Y156.584 E2.86331
G1 X156.584 Y164.794 E3.26642
G1 X155.99 Y164.794 E3.28705
G1 X164.794 Y155.99 E3.71932
G1 X164.794 Y155.396 E3.73995
G1 X155.396 Y164.794 E4.20139
G1 X154.802 Y164.794 E4.22201
G1 X164.794 Y154.802 E4.71263
G1 X164.794 Y154.209 E4.73324
G1 X154.209 Y164.794 E5.25302
G1 X153.615 Y164.794 E5.27364
G1 X164.794 Y153.615 E5.82258
G1 X164.794 Y153.021 E5.84321
G1 X153.021 Y164.794 E6.42131
G1 X152.427 Y164.794 E6.44194
G1 X164.794 Y152.427 E7.0492
G1 X164.794 Y151.833 E7.06984
G1 X151.833 Y164.794 E7.70626
G1 X151.239 Y164.794 E7.7269
G1 X164.794 Y151.239 E8.39249
G1 X164.794 Y150.645 E8.41312
G1 X150.645 Y164.794 E9.10789
G1 X150.051 Y164.794 E9.12851
G1 X164.794 Y150.051 E9.85245
G1 X164.794 Y149.457 E9.87307
G1 X149.457 Y164.794 E10.62617
G1 X148.863 Y164.794 E10.6468
G1 X164.794 Y148.863 E11.42906
