; generated by SuperSlicer 2.7.61.1 on 2025-10-01 at 00:30:45 UTC

; 

; external perimeters extrusion width = 0.43mm
; perimeters extrusion width = 0.80mm
; infill extrusion width = 0.80mm
; solid infill extrusion width = 0.80mm
; top infill extrusion width = 0.44mm
; first layer extrusion width = 0.61mm


; printing object dummycube_stl id:0 copy 0
; stop printing object dummycube_stl id:0 copy 0
; object:{"name":"dummycube_stl id:0 copy 0","id":"0","object_id":0,"copy":0,"object_center":[128.000,128.000,0.000],"boundingbox_center":[128.000,128.000,37.733],"boundingbox_size":[75.465,75.465,75.465],"scale":[1.000,1.000,1.000],"outline":[[165.733,165.733],[90.267,165.733],[90.267,90.267],[165.733,90.267]]}
; plater:{,"object_center":[128.000,128.000,0.000],"boundingbox_center":[128.000,128.000,37.733],"boundingbox_size":[75.465,75.465,75.465],"outline":[[90.267,90.267],[165.733,90.267],[165.733,165.733],[90.267,165.733]]}

M107
M140 S60
M104 S210
;TYPE:Custom
G28 ; home all axes
G1 Z5 F5000 ; lift nozzle

G21 ; set units to millimeters
G90 ; use absolute coordinates
M82 ; use absolute distances for extrusion
G92 E0
; Filament gcode
M109 S210
M190 S60
;LAYER_CHANGE
;Z:0.3
;HEIGHT:0.3
G1 E-2 F2400
G1 X85.599 Y86.206 F7800
G1 Z.3
G1 E0 F2400
;TYPE:Skirt/Brim
;WIDTH:0.44
G1 F1800
G1 X86.691 Y85.218 E.06902
G1 X87.986 Y84.515 E.13804
G1 X89.411 Y84.139 E.20706
G1 X90.267 Y84.08 E.24729
G1 X165.733 Y84.08 E3.78279
G1 X167.195 Y84.255 E3.8518
G1 X168.575 Y84.771 E3.92082
G1 X169.794 Y85.599 E3.98984
G1 X170.782 Y86.691 E4.05886
G1 X171.485 Y87.986 E4.12788
G1 X171.861 Y89.411 E4.1969
G1 X171.92 Y90.267 E4.23713
G1 X171.92 Y165.733 E7.77263
G1 X171.745 Y167.195 E7.84165
G1 X171.229 Y168.575 E7.91066
G1 X170.401 Y169.794 E7.97968
G1 X169.309 Y170.782 E8.0487
G1 X168.014 Y171.485 E8.11772
G1 X166.589 Y171.861 E8.18674
G1 X165.733 Y171.92 E8.22698
G1 X90.267 Y171.92 E11.76247
G1 X88.805 Y171.745 E11.83149
G1 X87.425 Y171.229 E11.90051
G1 X86.206 Y170.401 E11.96952
G1 X85.218 Y169.309 E12.03854
G1 X84.515 Y168.014 E12.10756
G1 X84.139 Y166.589 E12.17658
G1 X84.08 Y165.733 E12.21682
G1 X84.08 Y90.267 E15.75231
G1 X84.255 Y88.805 E15.82133
G1 X84.771 Y87.425 E15.89035
G1 X85.565 Y86.256 E15.95655
G92 E0
G1 E-2 F2400
; printing object dummycube_stl id:0 copy 0
G1 X91.133 Y91.133 F7800
G1 E0 F2400
;TYPE:Perimeter
;WIDTH:0.611504
G1 F1800
G1 X164.867 Y91.133 E5.03161
G1 X164.867 Y164.867 E10.06322
G1 X91.133 Y164.867 E15.09482
G1 X91.133 Y91.193 E20.12234
G1 X90.573 Y90.573 F7800
;TYPE:External perimeter
G1 F1800
G1 X165.427 Y90.573 E25.23037
G1 X165.427 Y165.427 E30.33841
G1 X90.573 Y165.427 E35.44645
G1 X90.573 Y90.633 E40.55039
;SEAM:90.573:90.573
;WIPE_START
G1 X90.92 Y90.773 F7800
;WIPE_END
G92 E0
G1 E-2 F2400
G1 X163.567 Y91.301 F7800
G1 E0 F2400
;TYPE:Solid infill
;WIDTH:0.619302
G1 F1800
G1 X164.458 Y92.192 E.08732
G1 X164.458 Y92.984 E.14218
G1 X163.016 Y91.542 E.2835
G1 X162.224 Y91.542 E.33836
G1 X164.458 Y93.776 E.55727
G1 X164.458 Y94.568 E.61213
G1 X161.432 Y91.542 E.90863
G1 X160.64 Y91.542 E.9635
G1 X164.458 Y95.36 E1.33759
G1 X164.458 Y96.152 E1.39245
G1 X159.848 Y91.542 E1.84413
G1 X159.056 Y91.542 E1.899
G1 X164.458 Y96.944 E2.42827
G1 X164.458 Y97.736 E2.48314
G1 X158.264 Y91.542 E3.09
G1 X157.472 Y91.542 E3.14487
G1 X164.458 Y98.528 E3.82932
G1 X164.458 Y99.32 E3.88419
G1 X156.68 Y91.542 E4.64624
G1 X155.888 Y91.542 E4.7011
G1 X164.458 Y100.112 E5.54074
G1 X164.458 Y100.904 E5.59561
G1 X155.096 Y91.542 E6.51284
G1 X154.304 Y91.542 E6.5677
G1 X164.458 Y101.696 E7.56252
G1 X164.458 Y102.488 E7.61739
G1 X153.512 Y91.542 E8.6898
G1 X152.72 Y91.542 E8.74467
G1 X164.458 Y103.28 E9.89467
G1 X164.458 Y104.072 E9.94954
G1 X151.928 Y91.542 E11.17714
G1 X151.136 Y91.542 E11.232
G1 X164.458 Y104.864 E12.53719
G1 X164.458 Y105.656 E12.59206
G1 X150.344 Y91.542 E13.97483
G1 X149.552 Y91.542 E14.0297
G1 X164.458 Y106.448 E15.49007
G1 X164.458 Y107.24 E15.54494
G1 X148.76 Y91.542 E17.0829
G1 X147.968 Y91.542 E17.13777
G1 X164.458 Y108.032 E18.75332
G1 X164.458 Y108.824 E18.80819
G1 X147.176 Y91.542 E20.50133
G1 X146.385 Y91.542 E20.5562
G1 X164.458 Y109.615 E22.32694
G1 X164.458 Y110.407 E22.3818
G1 X145.593 Y91.542 E24.23013
G1 X144.801 Y91.542 E24.285
G1 X164.458 Y111.199 E26.21092
G1 X164.458 Y111.991 E26.26578
G1 X144.009 Y91.542 E28.26929
G1 X143.217 Y91.542 E28.32416
G1 X164.458 Y112.783 E30.40526
G1 X164.458 Y113.575 E30.46013
G1 X142.425 Y91.542 E32.61882
G1 X141.633 Y91.542 E32.67369
G1 X164.458 Y114.367 E34.90998
G1 X164.458 Y115.159 E34.96484
G1 X140.841 Y91.542 E37.27872
G1 X140.049 Y91.542 E37.33359
G1 X164.458 Y115.951 E39.72506
G1 X164.458 Y116.743 E39.77992
G1 X139.257 Y91.542 E42.24898
G1 X138.465 Y91.542 E42.30385
G1 X164.458 Y117.535 E44.8505
G1 X164.458 Y118.327 E44.90537
G1 X137.673 Y91.542 E47.52961
G1 X136.881 Y91.542 E47.58448
G1 X164.458 Y119.119 E50.28631
G1 X164.458 Y119.911 E50.34118
G1 X136.089 Y91.542 E53.12061
G1 X135.297 Y91.542 E53.17547
G1 X164.458 Y120.703 E56.03249
G1 X164.458 Y121.495 E56.08736
G1 X134.505 Y91.542 E59.02197
G1 X133.713 Y91.542 E59.07683
G1 X164.458 Y122.287 E62.08904
G1 X164.458 Y123.079 E62.1439
G1 X132.921 Y91.542 E65.23369
G1 X132.129 Y91.542 E65.28856
G1 X164.458 Y123.871 E68.45595
G1 X164.458 Y124.663 E68.51081
G1 X131.337 Y91.542 E71.75579
G1 X130.545 Y91.542 E71.81065
G1 X164.458 Y125.455 E75.13322
G1 X164.458 Y126.247 E75.18809
G1 X129.753 Y91.542 E78.58825
G1 X128.961 Y91.542 E78.64311
G1 X164.458 Y127.039 E82.12087
G1 X164.458 Y127.831 E82.17573
G1 X128.169 Y91.542 E85.73107
G1 X127.377 Y91.542 E85.78594
G1 X164.458 Y128.623 E89.41887
G1 X164.458 Y129.414 E89.47374
G1 X126.586 Y91.542 E93.18427
G1 X125.794 Y91.542 E93.23913
G1 X164.458 Y130.206 E97.02725
G1 X164.458 Y130.998 E97.08212
G1 X125.002 Y91.542 E100.94782
G1 X124.21 Y91.542 E101.00269
G1 X164.458 Y131.79 E104.94599
G1 X164.458 Y132.582 E105.00086
G1 X123.418 Y91.542 E109.02175
G1 X122.626 Y91.542 E109.07662
G1 X164.458 Y133.374 E113.1751
G1 X164.458 Y134.166 E113.22996
G1 X121.834 Y91.542 E117.40604
G1 X121.042 Y91.542 E117.46091
G1 X164.458 Y134.958 E121.71457
G1 X164.458 Y135.75 E121.76944
G1 X120.25 Y91.542 E126.1007
G1 X119.458 Y91.542 E126.15556
G1 X164.458 Y136.542 E130.56441
G1 X164.458 Y137.334 E130.61928
G1 X118.666 Y91.542 E135.10572
G1 X117.874 Y91.542 E135.16059
G1 X164.458 Y138.126 E139.72462
G1 X164.458 Y138.918 E139.77949
G1 X117.082 Y91.542 E144.42111
G1 X116.29 Y91.542 E144.47598
G1 X164.458 Y139.71 E149.19519
G1 X164.458 Y140.502 E149.25006
G1 X115.498 Y91.542 E154.04687
G1 X114.706 Y91.542 E154.10173
G1 X164.458 Y141.294 E158.97613
G1 X164.458 Y142.086 E159.031
G1 X113.914 Y91.542 E163.98299
G1 X113.122 Y91.542 E164.03785
G1 X164.458 Y142.878 E169.06744
G1 X164.458 Y143.67 E169.1223
G1 X112.33 Y91.542 E174.22948
G1 X111.538 Y91.542 E174.28434
G1 X164.458 Y144.462 E179.46911
G1 X164.458 Y145.254 E179.52397
G1 X110.746 Y91.542 E184.78633
G1 X109.954 Y91.542 E184.8412
G1 X164.458 Y146.046 E190.18114
G1 X164.458 Y146.838 E190.23601
G1 X109.162 Y91.542 E195.65355
G1 X108.37 Y91.542 E195.70842
G1 X164.458 Y147.63 E201.20355
G1 X164.458 Y148.422 E201.25841
G1 X107.579 Y91.542 E206.83114
G1 X106.787 Y91.542 E206.886
G1 X164.458 Y149.213 E212.53632
G1 X164.458 Y150.005 E212.59118
G1 X105.995 Y91.542 E218.31909
G1 X105.203 Y91.542 E218.37396
G1 X164.458 Y150.797 E224.17945
G1 X164.458 Y151.589 E224.23432
G1 X104.411 Y91.542 E230.11741
G1 X103.619 Y91.542 E230.17227
G1 X164.458 Y152.381 E236.13296
G1 X164.458 Y153.173 E236.18782
G1 X102.827 Y91.542 E242.22609
G1 X102.035 Y91.542 E242.28096
G1 X164.458 Y153.965 E248.39682
G1 X164.458 Y154.757 E248.45169
G1 X101.243 Y91.542 E254.64515
G1 X100.451 Y91.542 E254.70001
G1 X164.458 Y155.549 E260.97106
G1 X164.458 Y156.341 E261.02592
G1 X99.659 Y91.542 E267.37456
G1 X98.867 Y91.542 E267.42943
G1 X164.458 Y157.133 E273.85566
G1 X164.458 Y157.925 E273.91052
G1 X98.075 Y91.542 E280.41435
G1 X97.283 Y91.542 E280.46921
G1 X164.458 Y158.717 E287.05063
G1 X164.458 Y159.509 E287.10549
G1 X96.491 Y91.542 E293.7645
G1 X95.699 Y91.542 E293.81936
G1 X164.458 Y160.301 E300.55596
G1 X164.458 Y161.093 E300.61083
G1 X94.907 Y91.542 E307.42501
G1 X94.115 Y91.542 E307.47988
G1 X164.458 Y161.885 E314.37166
G1 X164.458 Y162.677 E314.42652
G1 X93.323 Y91.542 E321.3959
G1 X92.531 Y91.542 E321.45076
G1 X164.458 Y163.469 E328.49772
G1 X164.458 Y164.261 E328.55259
G1 X91.739 Y91.542 E335.67714
G1 X91.542 Y91.542 E335.69082
G1 X91.542 Y92.137 E335.73201
G1 X163.863 Y164.458 E342.81764
G1 X163.071 Y164.458 E342.87251
G1 X91.542 Y92.929 E349.88055
G1 X91.542 Y93.72 E349.93542
G1 X162.28 Y164.458 E356.86587
G1 X161.488 Y164.458 E356.92073
G1 X91.542 Y94.512 E363.77359
G1 X91.542 Y95.304 E363.82846
G1 X160.696 Y164.458 E370.60372
G1 X159.904 Y164.458 E370.65859
G1 X91.542 Y96.096 E377.35627
G1 X91.542 Y96.888 E377.41113
G1 X159.112 Y164.458 E384.03122
G1 X158.32 Y164.458 E384.08608
G1 X91.542 Y97.68 E390.62857
G1 X91.542 Y98.472 E390.68344
G1 X157.528 Y164.458 E397.14834
G1 X156.736 Y164.458 E397.20321
G1 X91.542 Y99.264 E403.59052
G1 X91.542 Y100.056 E403.64538
G1 X155.944 Y164.458 E409.9551
G1 X155.152 Y164.458 E410.00996
G1 X91.542 Y100.848 E416.24209
G1 X91.542 Y101.64 E416.29696
G1 X154.36 Y164.458 E422.45149
G1 X153.568 Y164.458 E422.50636
G1 X91.542 Y102.432 E428.5833
G1 X91.542 Y103.224 E428.63817
G1 X152.776 Y164.458 E434.63752
G1 X151.984 Y164.458 E434.69238
G1 X91.542 Y104.016 E440.61414
G1 X91.542 Y104.808 E440.66901
G1 X151.192 Y164.458 E446.51318
G1 X150.4 Y164.458 E446.56804
G1 X91.542 Y105.6 E452.33462
G1 X91.542 Y106.392 E452.38949
G1 X149.608 Y164.458 E458.07847
G1 X148.816 Y164.458 E458.13334
G1 X91.542 Y107.184 E463.74473
G1 X91.542 Y107.976 E463.7996
G1 X148.024 Y164.458 E469.3334
G1 X147.232 Y164.458 E469.38827
G1 X91.542 Y108.768 E474.84448
G1 X91.542 Y109.56 E474.89934
G1 X146.44 Y164.458 E480.27796
G1 X145.648 Y164.458 E480.33283
G1 X91.542 Y110.352 E485.63385
G1 X91.542 Y111.144 E485.68872
G1 X144.856 Y164.458 E490.91216
G1 X144.064 Y164.458 E490.96702
G1 X91.542 Y111.936 E496.11287
G1 X91.542 Y112.728 E496.16773
G1 X143.272 Y164.458 E501.23599
G1 X142.481 Y164.458 E501.29085
G1 X91.542 Y113.519 E506.28151
G1 X91.542 Y114.311 E506.33638
G1 X141.689 Y164.458 E511.24945
G1 X140.897 Y164.458 E511.30431
G1 X91.542 Y115.103 E516.13979
G1 X91.542 Y115.895 E516.19466
G1 X140.105 Y164.458 E520.95254
G1 X139.313 Y164.458 E521.00741
G1 X91.542 Y116.687 E525.68771
G1 X91.542 Y117.479 E525.74257
G1 X138.521 Y164.458 E530.34528
G1 X137.729 Y164.458 E530.40014
G1 X91.542 Y118.271 E534.92525
G1 X91.542 Y119.063 E534.98012
G1 X136.937 Y164.458 E539.42764
G1 X136.145 Y164.458 E539.48251
G1 X91.542 Y119.855 E543.85243
G1 X91.542 Y120.647 E543.9073
G1 X135.353 Y164.458 E548.19964
G1 X134.561 Y164.458 E548.2545
G1 X91.542 Y121.439 E552.46925
G1 X91.542 Y122.231 E552.52412
G1 X133.769 Y164.458 E556.66127
G1 X132.977 Y164.458 E556.71614
G1 X91.542 Y123.023 E560.7757
G1 X91.542 Y123.815 E560.83056
G1 X132.185 Y164.458 E564.81254
G1 X131.393 Y164.458 E564.8674
G1 X91.542 Y124.607 E568.77178
G1 X91.542 Y125.399 E568.82665
G1 X130.601 Y164.458 E572.65343
G1 X129.809 Y164.458 E572.7083
G1 X91.542 Y126.191 E576.4575
G1 X91.542 Y126.983 E576.51236
G1 X129.017 Y164.458 E580.18397
G1 X128.225 Y164.458 E580.23883
G1 X91.542 Y127.775 E583.83285
G1 X91.542 Y128.567 E583.88771
G1 X127.433 Y164.458 E587.40414
G1 X126.641 Y164.458 E587.459
G1 X91.542 Y129.359 E590.89783
G1 X91.542 Y130.151 E590.9527
G1 X125.849 Y164.458 E594.31394
G1 X125.057 Y164.458 E594.3688
G1 X91.542 Y130.943 E597.65245
G1 X91.542 Y131.735 E597.70731
G1 X124.265 Y164.458 E600.91337
G1 X123.473 Y164.458 E600.96824
G1 X91.542 Y132.527 E604.0967
G1 X91.542 Y133.318 E604.15157
G1 X122.682 Y164.458 E607.20244
G1 X121.89 Y164.458 E607.2573
G1 X91.542 Y134.11 E610.23059
G1 X91.542 Y134.902 E610.28545
G1 X121.098 Y164.458 E613.18114
G1 X120.306 Y164.458 E613.23601
G1 X91.542 Y135.694 E616.05411
G1 X91.542 Y136.486 E616.10897
G1 X119.514 Y164.458 E618.84948
G1 X118.722 Y164.458 E618.90434
G1 X91.542 Y137.278 E621.56726
G1 X91.542 Y138.07 E621.62212
G1 X117.93 Y164.458 E624.20745
G1 X117.138 Y164.458 E624.26231
G1 X91.542 Y138.862 E626.77004
G1 X91.542 Y139.654 E626.82491
G1 X116.346 Y164.458 E629.25505
G1 X115.554 Y164.458 E629.30992
G1 X91.542 Y140.446 E631.66247
G1 X91.542 Y141.238 E631.71733
G1 X114.762 Y164.458 E633.99229
G1 X113.97 Y164.458 E634.04715
G1 X91.542 Y142.03 E636.24452
G1 X91.542 Y142.822 E636.29938
G1 X113.178 Y164.458 E638.41916
G1 X112.386 Y164.458 E638.47402
G1 X91.542 Y143.614 E640.51621
G1 X91.542 Y144.406 E640.57107
G1 X111.594 Y164.458 E642.53566
G1 X110.802 Y164.458 E642.59053
G1 X91.542 Y145.198 E644.47753
G1 X91.542 Y145.99 E644.53239
G1 X110.01 Y164.458 E646.3418
G1 X109.218 Y164.458 E646.39667
G1 X91.542 Y146.782 E648.12849
G1 X91.542 Y147.574 E648.18335
G1 X108.426 Y164.458 E649.83758
G1 X107.634 Y164.458 E649.89244
G1 X91.542 Y148.366 E651.46907
G1 X91.542 Y149.158 E651.52394
G1 X106.842 Y164.458 E653.02298
G1 X106.05 Y164.458 E653.07785
G1 X91.542 Y149.95 E654.4993
G1 X91.542 Y150.742 E654.55416
G1 X105.258 Y164.458 E655.89802
G1 X104.466 Y164.458 E655.95289
G1 X91.542 Y151.534 E657.21915
G1 X91.542 Y152.325 E657.27402
G1 X103.675 Y164.458 E658.4627
G1 X102.883 Y164.458 E658.51756
G1 X91.542 Y153.117 E659.62865
G1 X91.542 Y153.909 E659.68351
G1 X102.091 Y164.458 E660.717
G1 X101.299 Y164.458 E660.77187
G1 X91.542 Y154.701 E661.72777
G1 X91.542 Y155.493 E661.78264
G1 X100.507 Y164.458 E662.66095
G1 X99.715 Y164.458 E662.71581
G1 X91.542 Y156.285 E663.51653
G1 X91.542 Y157.077 E663.57139
G1 X98.923 Y164.458 E664.29452
G1 X98.131 Y164.458 E664.34939
G1 X91.542 Y157.869 E664.99492
G1 X91.542 Y158.661 E665.04979
G1 X97.339 Y164.458 E665.61773
G1 X96.547 Y164.458 E665.6726
G1 X91.542 Y159.453 E666.16295
G1 X91.542 Y160.245 E666.21781
G1 X95.755 Y164.458 E666.63057
G1 X94.963 Y164.458 E666.68544
G1 X91.542 Y161.037 E667.02061
G1 X91.542 Y161.829 E667.07547
G1 X94.171 Y164.458 E667.33305
G1 X93.379 Y164.458 E667.38792
G1 X91.542 Y162.621 E667.5679
G1 X91.542 Y163.413 E667.62277
G1 X92.587 Y164.458 E667.72516
G1 X91.795 Y164.458 E667.78003
G1 X91.301 Y163.964 E667.82842
;LAYER_CHANGE
;Z:0.5
;HEIGHT:0.2
G1 Z.5 F7800
; stop printing object dummycube_stl id:0 copy 0
; printing object dummycube_stl id:0 copy 0
G1 X91.067 Y164.933
;TYPE:Perimeter
;WIDTH:0.8
G1 F3600
G1 X91.067 Y91.067 E672.47834
G1 X164.933 Y91.067 E677.12826
G1 X164.933 Y164.933 E681.77817
G1 X91.127 Y164.933 E686.42431
G1 X90.485 Y165.515 F7800
;TYPE:External perimeter
;WIDTH:0.434336
G1 F1800
G1 X90.485 Y90.485 E688.8663
G1 X165.515 Y90.485 E691.30828
G1 X165.515 Y165.515 E693.75026
G1 X90.545 Y165.515 E696.19029
;SEAM:90.485:165.515
;WIPE_START
G1 X90.685 Y165.169 F7800
;WIPE_END
G92 E0
G1 E-2 F2400
G1 X163.082 Y164.612 F7800
G1 E0 F2400
;TYPE:Solid infill
;WIDTH:0.795129
G1 F1800
G1 X164.286 Y163.407 E.10661
G1 X164.286 Y162.336 E.1736
G1 X162.336 Y164.286 E.34614
G1 X161.266 Y164.286 E.41313
G1 X164.286 Y161.266 E.68041
G1 X164.286 Y160.195 E.7474
G1 X160.195 Y164.286 E1.10942
G1 X159.124 Y164.286 E1.17641
G1 X164.286 Y159.124 E1.63316
G1 X164.286 Y158.054 E1.70015
G1 X158.054 Y164.286 E2.25164
G1 X156.983 Y164.286 E2.31863
G1 X164.286 Y156.983 E2.96486
G1 X164.286 Y155.912 E3.03185
G1 X155.912 Y164.286 E3.77282
G1 X154.842 Y164.286 E3.83981
G1 X164.286 Y154.842 E4.67552
G1 X164.286 Y153.771 E4.74251
G1 X153.771 Y164.286 E5.67295
G1 X152.7 Y164.286 E5.73994
G1 X164.286 Y152.7 E6.76513
G1 X164.286 Y151.63 E6.83212
G1 X151.63 Y164.286 E7.95204
G1 X150.559 Y164.286 E8.01903
G1 X164.286 Y150.559 E9.23369
G1 X164.286 Y149.488 E9.30068
G1 X149.488 Y164.286 E10.61007
G1 X148.418 Y164.286 E10.67706
G1 X164.286 Y148.418 E12.0812
G1 X164.286 Y147.347 E12.14819
G1 X147.347 Y164.286 E13.64706
G1 X146.276 Y164.286 E13.71405
G1 X164.286 Y146.276 E15.30766
G1 X164.286 Y145.206 E15.37465
G1 X145.206 Y164.286 E17.063
G1 X144.135 Y164.286 E17.12999
G1 X164.286 Y144.135 E18.91308
G1 X164.286 Y143.064 E18.98007
